X:421
T:Juliana
C:Tradicional
S:Msica Tradicional Asturiana, (C) Tello & Tito. Asturies, 2001.
S:http://pagina.de/MusTradAst <telloytito@asturies.org>
A:Asturies
Z:Danzas y Bailes I
M:6/8
L:1/8
Q:3/8=96
K:Bb
|: {A}B2 B BBB|c2 B ABA|[1 G2 F4 :|[2 GFD G F2|
|G2 A BGA|GFE G F2|G2 A BGA|GFE G F2|
|G2 A BGA|GFE G F2|G2 A BGA|GFE GFE|G F5|
|G2 A BGA|GFE G F2|G2 A BGA|GFE G F2|
|G2 A BGA|GFE G F2|G2 A BGA|GFE G F2|
|G2 A BGA|GFE G F2|G2 A BGA|GFE G F2|
|G2 A BGA|GFE G F2|G2 A BGA|GFE G F2|
|B2 B BBB|c2 B GBA|G2 F4-|F6-|F z5|
